source/img/energo/activity-2.4.svg

<svg width="134" height="134" viewBox="0 0 134 134" fill="none" xmlns="http://www.w3.org/2000/svg">
<path d="M92.1818 98.6981V85.3805C93.9646 84.6128 95.2099 82.7509 95.2099 80.6088V69.0808C95.2099 66.2386 93.0603 63.9256 90.4171 63.9256H82.8553V61.3556C82.8553 58.732 80.6859 56.5977 78.0181 56.5977H56.9902C54.3178 56.5977 52.1453 58.7357 52.1453 61.3631V63.9256H44.5835C41.9403 63.9256 39.7907 66.2386 39.7907 69.0808V80.6088C39.7907 82.7502 41.0353 84.6115 42.8188 85.3801V98.6981C42.8188 101.011 44.4256 102.893 46.4004 102.893H88.6003C90.575 102.893 92.1818 101.011 92.1818 98.6981ZM54.8131 61.3631C54.8131 60.1825 55.7897 59.2228 56.9902 59.2228H78.0181C79.214 59.2228 80.1876 60.1795 80.1876 61.3556V63.9256H54.8131V61.3631ZM44.3417 83.1234C43.269 82.9712 42.4585 81.8907 42.4585 80.6088V69.0808C42.4585 67.6854 43.4122 66.5507 44.5835 66.5507H90.4171C91.5885 66.5507 92.5421 67.6854 92.5421 69.0808V80.6088C92.5421 81.8912 91.7311 82.9723 90.6609 83.1231C90.6088 83.1302 90.5532 83.1313 90.4984 83.1337C90.4704 83.1349 90.4435 83.1389 90.4156 83.1389H72.5016H62.499H44.5851C44.5025 83.1389 44.4199 83.1336 44.3417 83.1234ZM71.1677 85.764V88.016C71.1677 88.6161 70.6694 89.1046 70.0592 89.1046H64.9414C64.3312 89.1046 63.8329 88.6161 63.8329 88.016V85.764H71.1677ZM45.4866 98.6981V85.764H61.1651V88.016C61.1651 90.0636 62.8593 91.7297 64.9414 91.7297H70.0592C72.1413 91.7297 73.8355 90.0636 73.8355 88.016V85.764H89.514V98.6981C89.514 99.5824 89.0219 100.268 88.6003 100.268H46.4004C45.9787 100.268 45.4866 99.5824 45.4866 98.6981Z" fill="white"/>
<path d="M71.713 74.9129C72.4505 74.9129 73.0469 74.3249 73.0469 73.6004C73.0469 72.8759 72.4505 72.2878 71.713 72.2878H63.2865C62.5491 72.2878 61.9526 72.8759 61.9526 73.6004C61.9526 74.3249 62.5491 74.9129 63.2865 74.9129H71.713Z" fill="white"/>
<path d="M118.294 57.6606V50.0642C118.294 22.5285 95.5012 0.126953 67.485 0.126953C39.4856 0.126953 16.7068 22.5285 16.7068 50.0642V57.6606C12.327 57.8099 8.80469 61.3376 8.80469 65.6814V97.1147C8.80469 101.553 12.4752 105.163 16.9874 105.163H29.5443C32.7978 105.163 35.4441 102.56 35.4441 99.3599V63.4362C35.4441 60.2359 32.7978 57.6327 29.5443 57.6327H27.5404V50.0642C27.5404 28.4045 45.4743 10.7834 67.5156 10.7834C89.5401 10.7834 107.46 28.4045 107.46 50.0642V57.6327H105.456C102.203 57.6327 99.5565 60.2359 99.5565 63.4362V99.3599C99.5565 102.107 101.512 104.402 104.122 105.001V110.061C104.122 111.856 103.411 113.543 102.122 114.812L95.1394 121.679C93.8484 122.948 92.1327 123.647 90.3067 123.647H82.8553V119.968C82.8553 117.554 80.8576 115.589 78.4029 115.589H71.3916C68.5107 115.589 66.1664 117.895 66.1664 120.729V121.132C66.1664 123.966 68.5107 126.272 71.3916 126.272H77.0092H81.5214H90.3067C92.8457 126.272 95.2313 125.3 97.0252 123.535L104.007 116.668C105.803 114.903 106.79 112.557 106.79 110.061V105.163H118.013C122.525 105.163 126.196 101.553 126.196 97.1147V65.6814C126.196 61.3376 122.674 57.8099 118.294 57.6606ZM15.6535 102.359C13.2588 101.769 11.4725 99.6507 11.4725 97.1147V65.6814C11.4725 63.1454 13.2588 61.0273 15.6535 60.4366V102.359ZM80.1876 123.647H77.0092H71.3916C69.981 123.647 68.8342 122.519 68.8342 121.132V120.729C68.8342 119.342 69.981 118.214 71.3916 118.214H78.4029C79.3872 118.214 80.1876 119.001 80.1876 119.968V123.647V123.647ZM29.5443 60.2578C31.3259 60.2578 32.7763 61.6834 32.7763 63.4362V99.3599C32.7763 101.113 31.3259 102.538 29.5443 102.538H18.3213V60.2578H26.2065H29.5443ZM67.5156 8.15832C44.0024 8.15832 24.8727 26.957 24.8727 50.0642V57.6327H19.3746V50.0642C19.3746 23.976 40.9575 2.75205 67.485 2.75205C94.0293 2.75205 115.626 23.976 115.626 50.0642V57.6327H110.128V50.0642C110.128 26.957 91.012 8.15832 67.5156 8.15832ZM116.679 102.538H105.456C103.675 102.538 102.224 101.113 102.224 99.3599V63.4362C102.224 61.6834 103.675 60.2578 105.456 60.2578H108.794H116.679V102.538ZM123.528 97.1147C123.528 99.6507 121.742 101.769 119.347 102.359V60.4366C121.742 61.0273 123.528 63.1454 123.528 65.6814V97.1147Z" fill="white"/>
</svg>

<svg width="134" height="134" fill="none" xmlns="http://www.w3.org/2000/svg"><path d="M92.182 98.698V85.381c1.783-.768 3.028-2.63 3.028-4.772V69.08c0-2.842-2.15-5.155-4.793-5.155h-7.562v-2.57c0-2.624-2.17-4.758-4.837-4.758H56.99c-2.672 0-4.845 2.138-4.845 4.765v2.563h-7.562c-2.643 0-4.792 2.313-4.792 5.155v11.528c0 2.141 1.244 4.003 3.028 4.771v13.318c0 2.313 1.607 4.195 3.581 4.195h42.2c1.975 0 3.582-1.882 3.582-4.195zM54.813 61.363c0-1.18.977-2.14 2.177-2.14h21.028c1.196 0 2.17.956 2.17 2.133v2.57H54.813v-2.563zm-10.471 21.76c-1.073-.152-1.883-1.232-1.883-2.514V69.08c0-1.396.953-2.53 2.124-2.53h45.834c1.171 0 2.125 1.134 2.125 2.53v11.528c0 1.282-.81 2.363-1.881 2.514-.052.007-.108.008-.163.01-.028.002-.055.006-.082.006H44.585a1.75 1.75 0 01-.243-.016zm26.826 2.641v2.252a1.1 1.1 0 01-1.109 1.089h-5.118a1.1 1.1 0 01-1.108-1.089v-2.252h7.335zM45.487 98.698V85.764h15.678v2.252c0 2.048 1.694 3.714 3.776 3.714h5.118c2.082 0 3.776-1.666 3.776-3.714v-2.252h15.679v12.934c0 .884-.492 1.57-.914 1.57H46.4c-.421 0-.913-.686-.913-1.57z" fill="#fff"/><path d="M71.713 74.913c.738 0 1.334-.588 1.334-1.313 0-.724-.596-1.312-1.334-1.312h-8.426c-.738 0-1.334.588-1.334 1.312 0 .725.596 1.313 1.333 1.313h8.427z" fill="#fff"/><path d="M118.294 57.66v-7.596C118.294 22.53 95.501.127 67.485.127c-28 0-50.778 22.402-50.778 49.937v7.597c-4.38.149-7.902 3.677-7.902 8.02v31.434c0 4.438 3.67 8.048 8.182 8.048h12.557c3.254 0 5.9-2.603 5.9-5.803V63.436c0-3.2-2.646-5.803-5.9-5.803H27.54v-7.569c0-21.66 17.934-39.28 39.976-39.28 22.024 0 39.944 17.62 39.944 39.28v7.569h-2.004c-3.253 0-5.9 2.603-5.9 5.803V99.36c0 2.747 1.956 5.042 4.566 5.641v5.06a6.624 6.624 0 01-2 4.751l-6.983 6.867a6.849 6.849 0 01-4.832 1.968h-7.452v-3.679c0-2.414-1.997-4.379-4.452-4.379h-7.011c-2.881 0-5.226 2.306-5.226 5.14v.403c0 2.834 2.345 5.14 5.226 5.14h18.915a9.517 9.517 0 006.718-2.737l6.982-6.867a9.2 9.2 0 002.783-6.607v-4.898h11.223c4.512 0 8.183-3.61 8.183-8.048V65.68c0-4.343-3.522-7.871-7.902-8.02zm-102.64 44.7c-2.395-.59-4.181-2.708-4.181-5.244V65.68c0-2.536 1.786-4.654 4.18-5.244v41.922zm64.534 21.288h-8.796c-1.411 0-2.558-1.128-2.558-2.515v-.403c0-1.387 1.147-2.515 2.558-2.515h7.01c.985 0 1.786.787 1.786 1.754v3.679zm-50.644-63.39c1.782 0 3.232 1.426 3.232 3.18V99.36c0 1.753-1.45 3.178-3.232 3.178H18.321v-42.28h11.223zM67.516 8.159c-23.514 0-42.643 18.799-42.643 41.906v7.569h-5.498v-7.569c0-26.088 21.583-47.312 48.11-47.312 26.544 0 48.141 21.224 48.141 47.312v7.569h-5.498v-7.569c0-23.107-19.116-41.906-42.612-41.906zm49.163 94.38h-11.223c-1.781 0-3.232-1.425-3.232-3.178V63.436c0-1.753 1.451-3.178 3.232-3.178h11.223v42.28zm6.849-5.423c0 2.536-1.786 4.654-4.181 5.244V60.437c2.395.59 4.181 2.708 4.181 5.244v31.434z" fill="#fff"/></svg>
